symbols/web/event_busy/materialsymbolssharp/event_busy_wght200_40px.svg

<svg xmlns="http://www.w3.org/2000/svg" height="40" width="40"><path d="m16.083 29.5-1-1L19 24.583l-3.917-3.916 1-1L20 23.583l3.917-3.916 1 1L21 24.583l3.917 3.917-1 1L20 25.583ZM6.667 35V8.083h5.708V4.625h1.583v3.458h12.209V4.625h1.458v3.458h5.708V35Zm1.416-1.417h23.834v-16H8.083Zm0-17.416h23.834V9.5H8.083Zm0 0V9.5v6.667Z"/></svg>

<svg xmlns="http://www.w3.org/2000/svg" height="40" width="40"><path d="M16.083 29.5 15.083 28.5 19 24.583 15.083 20.667 16.083 19.667 20 23.583 23.917 19.667 24.917 20.667 21 24.583 24.917 28.5 23.917 29.5 20 25.583ZM6.667 35V8.083H12.375V4.625H13.958V8.083H26.167V4.625H27.625V8.083H33.333V35ZM8.083 33.583H31.917V17.583H8.083ZM8.083 16.167H31.917V9.5H8.083ZM8.083 16.167V9.5V16.167Z"/></svg>
